formas-de-pagamento/santander-v3.svg

<svg enable-background="new 0 0 60 40" height="40" viewBox="0 0 60 40" width="60" xmlns="http://www.w3.org/2000/svg"><switch><foreignObject height="1" requiredExtensions="http://ns.adobe.com/AdobeIllustrator/10.0/" width="1"/><g><path d="m60 35c0 2.75-2.25 5-5 5h-50c-2.75 0-5-2.25-5-5v-30c0-2.75 2.25-5 5-5h50c2.75 0 5 2.25 5 5z" fill="#f5f5f5"/><path d="m55 0h-50c-2.75 0-5 2.25-5 5v30c0 2.75 2.25 5 5 5h50c2.75 0 5-2.25 5-5v-30c0-2.75-2.25-5-5-5zm0 1c2.206 0 4 1.794 4 4v30c0 2.206-1.794 4-4 4h-50c-2.206 0-4-1.794-4-4v-30c0-2.206 1.794-4 4-4z" fill="#fff"/><path d="m15.587 5.587h28.826v28.826h-28.826z" fill="#fd0d1a"/><path d="m30 30c6.063 0 11.009-2.461 11.009-5.476 0-2.206-2.647-4.113-6.44-4.98-.022-.556.046-1.379-.359-2.286-.588-1.325-1.887-2.804-2.937-4.263-1.047-1.453-.807-2.535-.869-2.994-.466.29-1.623 1.506-1.037 3.578.581 2.055 2.743 4.323 3.411 5.503.667 1.182.556 2.263.365 2.929-.192.666-.553.939-.85 1.13.02-.442.005-1.041-.266-1.683-.272-.641-1.587-2.174-2.545-3.302-.955-1.128-1.883-2.819-1.466-4.164-.412.251-1.293 1.355-1.245 2.643.045 1.288 1.118 3.034 1.78 3.859.663.825 1.816 2.478 2.044 3.389.227.91.146 1.56-.049 2.03-.163.39-.715.829-.715.829s.05-.635-.178-1.122c-.227-.487-2.861-4.061-3.12-4.435-.238-.342-.855-1.049-.821-1.702-3.943.835-6.719 2.783-6.719 5.042-.002 3.014 4.944 5.475 11.007 5.475z" fill="#fff"/></g></switch></svg>

<?xml version="1.0" encoding="UTF-8"?>
<svg width="60px" height="40px" viewBox="0 0 60 40" version="1.1" xmlns="http://www.w3.org/2000/svg" xmlns:xlink="http://www.w3.org/1999/xlink">
    <!-- Generator: Sketch 52.4 (67378) - http://www.bohemiancoding.com/sketch -->
    <title>Artboard</title>
    <desc>Created with Sketch.</desc>
    <g id="Artboard" stroke="none" stroke-width="1" fill="none" fill-rule="evenodd">
        <g id="santander-v3">
            <path d="M60,35 C60,37.75 57.75,40 55,40 L5,40 C2.25,40 0,37.75 0,35 L0,5 C0,2.25 2.25,0 5,0 L55,0 C57.75,0 60,2.25 60,5 L60,35 Z" id="Path" fill="#F5F5F5"></path>
            <path d="M55,0 L5,0 C2.25,0 0,2.25 0,5 L0,35 C0,37.75 2.25,40 5,40 L55,40 C57.75,40 60,37.75 60,35 L60,5 C60,2.25 57.75,0 55,0 Z M55,1 C57.206,1 59,2.794 59,5 L59,35 C59,37.206 57.206,39 55,39 L5,39 C2.794,39 1,37.206 1,35 L1,5 C1,2.794 2.794,1 5,1 L55,1 Z" id="Shape" fill="#D0D0D0" fill-rule="nonzero"></path>
            <polygon id="Path" fill="#FD0D1A" points="15.587 5.587 44.413 5.587 44.413 34.413 15.587 34.413"></polygon>
            <path d="M30,30 C36.063,30 41.009,27.539 41.009,24.524 C41.009,22.318 38.362,20.411 34.569,19.544 C34.547,18.988 34.615,18.165 34.21,17.258 C33.622,15.933 32.323,14.454 31.273,12.995 C30.226,11.542 30.466,10.46 30.404,10.001 C29.938,10.291 28.781,11.507 29.367,13.579 C29.948,15.634 32.11,17.902 32.778,19.082 C33.445,20.264 33.334,21.345 33.143,22.011 C32.951,22.677 32.59,22.95 32.293,23.141 C32.313,22.699 32.298,22.1 32.027,21.458 C31.755,20.817 30.44,19.284 29.482,18.156 C28.527,17.028 27.599,15.337 28.016,13.992 C27.604,14.243 26.723,15.347 26.771,16.635 C26.816,17.923 27.889,19.669 28.551,20.494 C29.214,21.319 30.367,22.972 30.595,23.883 C30.822,24.793 30.741,25.443 30.546,25.913 C30.383,26.303 29.831,26.742 29.831,26.742 C29.831,26.742 29.881,26.107 29.653,25.62 C29.426,25.133 26.792,21.559 26.533,21.185 C26.295,20.843 25.678,20.136 25.712,19.483 C21.769,20.318 18.993,22.266 18.993,24.525 C18.991,27.539 23.937,30 30,30 Z" id="Path" fill="#FFFFFF"></path>
        </g>
    </g>
</svg>
